X: 7
T: Tar Road To Sligo, The
Z: Fernando Durbán Galnares
S: https://thesession.org/tunes/151#setting46267
R: jig
M: 6/8
L: 1/8
K: Dmaj
|:e|"Bm"fdB Bcd|"A"ecA BAG|"D"FGA ABc|"G"dcd "A"efg|
"Bm"fdB Bcd|"A"ecA BAG|"D"FGA Aag|"A"fdc "D"d2:|
|:B|"D"Adf Adf|"G"gfg "A"efg|"D"afd dcd|"G"Bed "A"cBA|
[1 "D"Adf Adf|"G"gfg "A"efg|"D"afd "G"bge|"A"edc "D"d2:|
[2 "Bm"fdB "G"gec|"D"aga "G"bge|"D"aga "G"bge|"A"edc "D"d2||

%-------------------- TUNE SEPARATOR --------------------%

